assets/img/ticon5.svg

<svg width="65" height="65" viewBox="0 0 65 65" fill="none" xmlns="http://www.w3.org/2000/svg">
<path d="M3.83896 37.122L1.27883 39.0421L0.638794 59.5231L2.55889 62.7233H16.6396L18.5597 59.5231V40.9622L16.6396 37.122H3.83896Z" fill="#FFC940"/>
<path d="M46.0811 27.5215L42.2409 30.7216L44.161 35.8419L48.0012 37.122L51.8414 33.9218V29.4416L46.0811 27.5215Z" fill="#FFC940"/>
<path d="M63.6355 0.366144C63.401 0.131757 63.083 0 62.7513 0L32.0005 0.00162508C31.3102 0.00162508 30.7506 0.561404 30.7506 1.25169V4.8265L18.9013 8.00153C18.2344 8.18029 17.8387 8.8657 18.0174 9.53249L24.1586 32.4514L18.846 37.764C18.1698 36.7767 17.0345 36.1275 15.7503 36.1275H3.75007C1.68221 36.1275 0 37.8098 0 39.8775V60.2531C0 62.3209 1.68221 64.0033 3.75007 64.0033H15.7504C17.5071 64.0033 18.985 62.7887 19.39 61.1556L20.8763 62.4518C22.0237 63.4524 23.4938 64.0034 25.0163 64.0034H62.7516C63.4419 64.0034 64.0016 63.4436 64.0016 62.7533V1.25006C64.0014 0.918547 63.8699 0.600531 63.6355 0.366144ZM17.0002 60.2532C17.0002 60.9424 16.4395 61.5033 15.7502 61.5033H3.74994C3.06066 61.5033 2.49988 60.9425 2.49988 60.2532V39.8777C2.49988 39.1884 3.06066 38.6276 3.74994 38.6276H4.47898H7.67914C7.67914 38.6276 9.789 38.6276 10.4793 38.6276C10.2393 38.6276 12.1594 38.6276 12.1594 38.6276H14.0795H15.7503C16.4396 38.6276 17.0004 39.1884 17.0004 39.8777L17.0002 60.2532ZM20.7558 10.0929L30.7506 7.41475V12.0469L29.9128 12.2714C29.5924 12.3573 29.3195 12.5666 29.1537 12.8538C28.988 13.1409 28.943 13.4821 29.0289 13.8023C29.5093 15.595 28.4416 17.4443 26.6489 17.9247C26.3282 18.0107 26.0548 18.2204 25.8892 18.5082C25.7236 18.7958 25.6789 19.1376 25.7656 19.4581L30.6382 37.5013H28.1293L26.8364 32.443C26.7952 32.282 26.7232 32.1336 26.6269 32.0046L20.7558 10.0929ZM30.7506 17.7795V28.3277L28.4706 19.8854C29.423 19.3936 30.2024 18.6578 30.7506 17.7795ZM48.7095 61.5031H25.016C24.0979 61.5031 23.2112 61.1709 22.5191 60.5675L19.5004 57.9347V40.6455L24.9579 35.1879L25.9477 39.0606C26.0892 39.614 26.5876 40.001 27.1588 40.001L51.7355 40.0025C52.7006 40.0025 53.4856 40.7876 53.4856 41.7526C53.4856 42.7177 52.7006 43.5027 51.7355 43.5027H39.1424C38.4521 43.5027 37.8923 44.0625 37.8923 44.7528C37.8923 45.4431 38.4521 46.0028 39.1424 46.0028H55.6482C56.6133 46.0028 57.3983 46.7879 57.3983 47.7529C57.3983 48.718 56.6133 49.503 55.6482 49.503H39.1424C38.4521 49.503 37.8923 50.0628 37.8923 50.7531C37.8923 51.4434 38.4521 52.0032 39.1424 52.0032H52.9735C53.9385 52.0032 54.7235 52.7882 54.7235 53.7532C54.7235 54.7183 53.9385 55.5033 52.9735 55.5033H39.1424C38.4521 55.5033 37.8923 56.0631 37.8923 56.7534C37.8923 57.4437 38.4521 58.0035 39.1424 58.0035H48.7095C49.6745 58.0035 50.4596 58.7885 50.4596 59.7535C50.4594 60.7181 49.6744 61.5031 48.7095 61.5031ZM61.5015 61.5031H52.5811C52.8234 60.969 52.9596 60.3768 52.9596 59.753C52.9596 59.1293 52.8234 58.5371 52.5811 58.003H52.9735C55.3169 58.003 57.2235 56.0964 57.2235 53.7529C57.2235 53.0693 57.0604 52.4234 56.7724 51.8506C58.572 51.3564 59.8982 49.7069 59.8982 47.7527C59.8982 46.8046 59.5859 45.9282 59.0593 45.2207V29.3774C59.0593 28.6871 58.4995 28.1273 57.8092 28.1273C57.1189 28.1273 56.5591 28.6871 56.5591 29.3774V43.6021C56.2654 43.5377 55.9607 43.5027 55.648 43.5027H55.607C55.8493 42.9686 55.9855 42.3764 55.9855 41.7526C55.9855 39.409 54.0789 37.5025 51.7354 37.5025H49.7259C51.8596 36.5875 53.3582 34.4666 53.3582 32.0016C53.3582 28.7028 50.6746 26.0191 47.3758 26.0191C44.0771 26.0191 41.3934 28.7028 41.3934 32.0016C41.3934 34.4666 42.8921 36.5875 45.0257 37.5025H38.1925V13.7336C40.4256 13.2469 42.1877 11.485 42.6742 9.25172H52.0773C52.5638 11.485 54.3259 13.2469 56.559 13.7336V30.4207C56.559 31.111 57.1188 31.6707 57.8091 31.6707C58.4994 31.6707 59.0591 31.111 59.0591 30.4207V12.6175C59.0591 11.9272 58.4994 11.3675 57.8091 11.3675C55.9531 11.3675 54.4434 9.8575 54.4434 8.00166C54.4434 7.31137 53.8836 6.75159 53.1933 6.75159H41.5582C40.868 6.75159 40.3082 7.31137 40.3082 8.00166C40.3082 9.85763 38.7984 11.3675 36.9425 11.3675C36.2522 11.3675 35.6924 11.9272 35.6924 12.6175V37.5024H33.2508V2.5015L61.5015 2.50013V61.5031ZM47.376 35.4841C45.4558 35.4841 43.8937 33.9219 43.8937 32.0018C43.8937 30.0817 45.4559 28.5193 47.376 28.5193C49.2961 28.5193 50.8583 30.0815 50.8583 32.0016C50.8583 33.9217 49.2963 35.4841 47.376 35.4841Z" fill="black"/>
</svg>

<svg width="65" height="65" fill="none" xmlns="http://www.w3.org/2000/svg"><path d="M3.839 37.122l-2.56 1.92-.64 20.481 1.92 3.2h14.08l1.92-3.2v-18.56l-1.92-3.841H3.84zm42.242-9.601l-3.84 3.2 1.92 5.12 3.84 1.281 3.84-3.2v-4.48l-5.76-1.92z" fill="#FFC940"/><path d="M63.636.366A1.25 1.25 0 0062.75 0L32 .002c-.69 0-1.25.56-1.25 1.25v3.575L18.9 8.002a1.25 1.25 0 00-.884 1.53l6.142 22.92-5.313 5.312a3.749 3.749 0 00-3.096-1.637h-12A3.754 3.754 0 000 39.877v20.376a3.754 3.754 0 003.75 3.75h12a3.756 3.756 0 003.64-2.847l1.486 1.296a6.298 6.298 0 004.14 1.551h37.736c.69 0 1.25-.56 1.25-1.25V1.25c0-.331-.132-.65-.366-.884zM17 60.253c0 .69-.56 1.25-1.25 1.25h-12c-.69 0-1.25-.56-1.25-1.25V39.878c0-.69.56-1.25 1.25-1.25h12c.69 0 1.25.56 1.25 1.25v20.375zm3.756-50.16l9.995-2.678v4.632l-.838.224a1.25 1.25 0 00-.884 1.531 3.37 3.37 0 01-2.38 4.123 1.25 1.25 0 00-.883 1.533l4.872 18.043H28.13l-1.293-5.058a1.25 1.25 0 00-.21-.438l-5.87-21.912zm9.995 7.686v10.549l-2.28-8.443a5.857 5.857 0 002.28-2.106zm17.958 43.724H25.016a3.799 3.799 0 01-2.497-.935L19.5 57.934v-17.29l5.458-5.457.99 3.873c.141.553.64.94 1.21.94l24.578.002c.965 0 1.75.785 1.75 1.75s-.785 1.75-1.75 1.75H39.142a1.25 1.25 0 000 2.5h16.506c.965 0 1.75.785 1.75 1.75s-.785 1.75-1.75 1.75H39.142a1.25 1.25 0 000 2.5h13.831c.965 0 1.75.785 1.75 1.75s-.785 1.75-1.75 1.75h-13.83a1.25 1.25 0 000 2.5h9.566c.965 0 1.75.785 1.75 1.75s-.785 1.75-1.75 1.75zm12.792 0h-8.92a4.225 4.225 0 000-3.5h.392a4.255 4.255 0 004.25-4.25 4.23 4.23 0 00-.45-1.902 4.257 4.257 0 003.125-4.098c0-.948-.312-1.825-.839-2.532V29.377a1.25 1.25 0 00-2.5 0v14.225a4.25 4.25 0 00-.911-.1h-.041a4.225 4.225 0 00.379-1.75 4.255 4.255 0 00-4.25-4.25h-2.01a5.99 5.99 0 003.632-5.5 5.99 5.99 0 00-5.982-5.983 5.99 5.99 0 00-5.983 5.983 5.991 5.991 0 003.633 5.5h-6.834V13.734a5.884 5.884 0 004.482-4.482h9.403a5.884 5.884 0 004.482 4.482V30.42a1.25 1.25 0 002.5 0V12.618c0-.69-.56-1.25-1.25-1.25a3.37 3.37 0 01-3.366-3.366c0-.69-.56-1.25-1.25-1.25H41.558c-.69 0-1.25.56-1.25 1.25a3.37 3.37 0 01-3.365 3.365c-.69 0-1.25.56-1.25 1.25v24.885H33.25v-35L61.5 2.5v59.003zM47.377 35.484a3.486 3.486 0 01-3.482-3.482 3.486 3.486 0 013.482-3.483 3.486 3.486 0 013.482 3.483 3.486 3.486 0 01-3.482 3.482z" fill="#000"/></svg>
